src/basic/200/u1F5D9-close.svg

<svg width="48" height="64" viewBox="0 0 48 64" fill="none" xmlns="http://www.w3.org/2000/svg">
<path fill-rule="evenodd" clip-rule="evenodd" d="M24,32.7071l-22.64645,22.6464l-0.70711,-0.7071l22.64646,-22.6464l-22.64649,-22.64645l0.70711,-0.70711l22.64648,22.64646l22.6465,-22.64646l0.7071,0.7071l-22.6465,22.64646l22.6465,22.6464l-0.7072,0.7071z" fill="black"/>
</svg>

<svg width="48" height="64" viewBox="0 0 48 64" fill="none" xmlns="http://www.w3.org/2000/svg">
<path fill-rule="evenodd" clip-rule="evenodd" d="M24 32.7071L1.35355 55.3535L0.646441 54.6464L23.2929 32L0.646409 9.35355L1.35352 8.64644L24 31.2929L46.6465 8.64644L47.3536 9.35354L24.7071 32L47.3536 54.6464L46.6464 55.3535L24 32.7071Z" fill="black"/>
</svg>
